_includes/icons/ios-info-squared.svg

<svg fill="#666" height="50" viewBox="0 0 50 50" width="50" xmlns="http://www.w3.org/2000/svg"><path d="m9 4c-2.7495161 0-5 2.2504839-5 5v32c0 2.749516 2.2504839 5 5 5h32c2.749516 0 5-2.250484 5-5v-32c0-2.7495161-2.250484-5-5-5zm0 2h32c1.668484 0 3 1.3315161 3 3v32c0 1.668484-1.331516 3-3 3h-32c-1.6684839 0-3-1.331516-3-3v-32c0-1.6684839 1.3315161-3 3-3zm14.451172 6c-.272 0-.451172.171688-.451172.429688v3.140624c0 .257.178172.429688.451172.429688v-.001953h3.09375c.272 0 .455078-.171688.455078-.429688v-3.138671c0-.257-.183078-.429688-.455078-.429688zm.023437 8c-.284 0-.474609.151953-.474609.376953v17.246094c0 .225.188609.375.474609.375v.001953h3.048829c.285999 0 .476562-.151953.476562-.376953v-17.246094c0-.225-.189563-.376953-.476562-.376953z"/></svg>

<svg xmlns="http://www.w3.org/2000/svg" viewBox="0 0 50 50" width="50" height="50" fill="#666"><path d="M 9 4 C 6.2504839 4 4 6.2504839 4 9 L 4 41 C 4 43.749516 6.2504839 46 9 46 L 41 46 C 43.749516 46 46 43.749516 46 41 L 46 9 C 46 6.2504839 43.749516 4 41 4 L 9 4 z M 9 6 L 41 6 C 42.668484 6 44 7.3315161 44 9 L 44 41 C 44 42.668484 42.668484 44 41 44 L 9 44 C 7.3315161 44 6 42.668484 6 41 L 6 9 C 6 7.3315161 7.3315161 6 9 6 z M 23.451172 12 C 23.179172 12 23 12.171688 23 12.429688 L 23 15.570312 C 23 15.827312 23.178172 16 23.451172 16 L 23.451172 15.998047 L 26.544922 15.998047 C 26.816922 15.998047 27 15.826359 27 15.568359 L 27 12.429688 C 27 12.172688 26.816922 12 26.544922 12 L 23.451172 12 z M 23.474609 20 C 23.190609 20 23 20.151953 23 20.376953 L 23 37.623047 C 23 37.848047 23.188609 37.998047 23.474609 37.998047 L 23.474609 38 L 26.523438 38 C 26.809437 38 27 37.848047 27 37.623047 L 27 20.376953 C 27 20.151953 26.810437 20 26.523438 20 L 23.474609 20 z"/></svg>
